X: 37197
T: Sir Torquil Monroe
R: jig
M: 6/8
K: Gmajor
DGG G2 A|BGG G2 F|E2 A ABG|F2 D DB,C|
DGG G2 A|BGF G2 F|E>cA FEF|G3- G:|
dBc dBG|cee e2 G|FF/G/A DcA|
[1 Bdd d2 ^c|dB/c/d GdB|cee e2 G|F>GA DcA|G3- G:|
[2 B/c/dd d2 ^c|dg/g/g gfe|dBe d2 F|E>FG DcA|G3- G||

